material/.icons/material/star-off.svg

<svg xmlns="http://www.w3.org/2000/svg" viewBox="0 0 24 24"><path d="M2 5.27L3.28 4 20 20.72 18.73 22l-1.68-1.69L12 17.27 5.82 21l1.63-7.03L2 9.24l3.66-.31L2 5.27M12 2l2.81 6.62 7.19.62-5.46 4.73.23.98-7.21-7.21L12 2z"/></svg>

<?xml version="1.0" encoding="UTF-8"?><!DOCTYPE svg PUBLIC "-//W3C//DTD SVG 1.1//EN" "http://www.w3.org/Graphics/SVG/1.1/DTD/svg11.dtd"><svg xmlns="http://www.w3.org/2000/svg" xmlns:xlink="http://www.w3.org/1999/xlink" version="1.1" id="mdi-star-off" width="24" height="24" viewBox="0 0 24 24"><path d="M2,5.27L3.28,4L20,20.72L18.73,22L17.05,20.31L12,17.27L5.82,21L7.45,13.97L2,9.24L5.66,8.93L2,5.27M12,2L14.81,8.62L22,9.24L16.54,13.97L16.77,14.95L9.56,7.74L12,2Z" /></svg>
